X:1
T:Title
%%score { ( 1 3 ) | 2 }
L:1/8
M:6/8
K:F
V:1 treble nm="Grand Piano"
V:3 treble 
V:2 bass 
V:1
 z3 z2[Q:1/4=90] [FA] | [Ac]2 [Ac] AGF | B2 d c2 A | [DFA]2 [CFA] [=B,FA][B,EG][B,DF] | %4
[M:5/8] [B,EG]-[B,EG]- [B,EG]3 |[M:1/8] [Ec] |[M:3/4] [Fc]2 [Ac]A GF | B2 d c2 c | =B2 BB cd | %9
[M:5/8] [Ec]-[Ec]- [Ec]3 |[M:1/8] [Ec] |[M:3/4] c2 cd c=B | c6 | A2 AB A_A | A6 | d>d dB cd | %16
 c>c cA [CGB][CAc] | [DGB]2 [B,DG]F FE |[M:5/8] F-F- F3 |] %19
V:2
 z3 z2 [F,C] | [F,C]2 [F,C] [F,CF][F,B,E][F,A,] | [F,DF]2 [F,B,F] [F,A,F]2 [F,CF] | %3
 D,2 D, G,,G,,G,, |[M:5/8] C,-C,- C,3 |[M:1/8] [C,B,] |[M:3/4] [F,A,]2 [F,C][F,CF] [F,B,E][F,A,] | %7
 [F,DF]2 [F,B,F] [F,A,F]2 [F,A,F] | [G,D]2 [G,D][G,D] [G,E][G,F] | %9
[M:5/8][K:bass] [C,G,]-[C,G,]- [C,G,]3 |[M:1/8] [C,B,] | %11
[M:3/4] [F,A,F]2 [F,A,F][F,B,F] [F,A,F][F,_A,F] | [F,A,F][F,C] [F,B,] [F,A,]2 [F,CF] | %13
 [F,CF]2 [F,CF][F,DF] [F,CF][F,=B,F] | [F,CF][F,C] [F,B,] [F,A,]2[K:treble] [F,A,F] | %15
 [B,F]>[B,F] [B,F][B,D] [B,E][B,F] | [F,A,F]>[F,A,F] [F,A,F][F,CF] F,F, | %17
 B,,2 B,,[C,A,C] [C,A,C][C,G,C] |[M:5/8] [F,A,C]-[F,A,C]- [F,A,C]3 |] %19
V:3
 x6 | x6 | x6 | x6 |[M:5/8] x5 |[M:1/8] x |[M:3/4] x6 | x6 | x6 |[M:5/8] x5 |[M:1/8] x | %11
[M:3/4] x6 | z A G F2 A | x6 | z E D C2 c | x6 | x6 | x6 |[M:5/8] x5 |] %19

